dist/svgs/unicons/line/html3-alt.svg

<svg xmlns="http://www.w3.org/2000/svg" data-name="Layer 1" viewBox="0 0 24 24"><path d="M7.95215,8.00044h6.98633l-.17719,2H9.99121a1,1,0,0,0,0,2h4.59284L14.32031,14.977l-2.3291.52832L9.66309,14.976l-.09571-1.06445a1,1,0,1,0-1.99218.17774l.16015,1.79a1.00142,1.00142,0,0,0,.77442.88672l3.25976.74024a1.0188,1.0188,0,0,0,.44336,0l3.26074-.74024a1.00139,1.00139,0,0,0,.77442-.88769l.43158-4.86792.002-.01-.00079-.00391.34649-3.9082a1.001,1.001,0,0,0-.99609-1.08789H7.95215a1,1,0,0,0,0,2ZM20.6543,2.32563a1.002,1.002,0,0,0-.73828-.32519H4.06641a.99963.99963,0,0,0-.9961,1.08887L4.51367,19.28364a.999.999,0,0,0,.72754.874l6.47266,1.80566a.99028.99028,0,0,0,.53711,0l6.49023-1.8125a.999.999,0,0,0,.72754-.874l1.44336-16.1875A1.00166,1.00166,0,0,0,20.6543,2.32563Zm-3.11621,16.085-5.55567,1.55176L6.44434,18.41743,5.15918,4.00044H18.82324Z"/></svg>

<svg xmlns="http://www.w3.org/2000/svg" data-name="Layer 1" viewBox="0 0 24 24"><path d="M7.952 8h6.986l-.177 2h-4.77a1 1 0 000 2h4.593l-.264 2.977-2.329.528-2.328-.529-.096-1.064a1 1 0 10-1.992.177l.16 1.79a1.001 1.001 0 00.775.887l3.26.74a1.019 1.019 0 00.443 0l3.26-.74a1.001 1.001 0 00.775-.888l.432-4.868.002-.01-.001-.004.346-3.908A1.001 1.001 0 0016.031 6H7.952a1 1 0 000 2zm12.702-5.674A1.002 1.002 0 0019.916 2H4.066a1 1 0 00-.996 1.09l1.444 16.194a.999.999 0 00.727.874l6.473 1.805a.99.99 0 00.537 0l6.49-1.812a.999.999 0 00.728-.874l1.443-16.188a1.002 1.002 0 00-.258-.763zM17.538 18.41l-5.556 1.551-5.538-1.545L5.16 4h13.664z"/></svg>
